contributed-vectors/expo.svg

<svg xmlns="http://www.w3.org/2000/svg" xml:space="preserve" style="fill-rule:evenodd;clip-rule:evenodd;stroke-linecap:round;stroke-linejoin:round;stroke-miterlimit:1.5" viewBox="0 0 192 192"><path d="M164.5 21.5c0-5.519-4.481-10-10-10h-133c-5.519 0-10 4.481-10 10v133c0 5.519 4.481 10 10 10h133c5.519 0 10-4.481 10-10v-133Z" style="fill:#fff" transform="translate(8 8)"/><path d="m50.626 117.743 49.959-27.462L80.26 77.248l-9.154-4.499-20.48 44.994Z" style="fill:#ababff;stroke:#ababff;stroke-width:2.6px" transform="matrix(.76793 0 0 .76793 21.85 21.738)"/><path d="m104.885 40.888-35.389-1.916 4.692 8.698 35.116 1.848-4.419-8.63Z" style="fill:#fff;stroke:#ababff;stroke-width:2.6px" transform="scale(.76793) rotate(-32.994 160.568 4.927)"/><path d="m74.269 54.769-30.16 58.629 6.517 4.345 26.376-33.979 26.686 64.699 10.034 5.78-30.781-94.734-8.672-4.74" style="fill:#fff;stroke:#ababff;stroke-width:2.6px" transform="matrix(.76793 0 0 .76793 21.85 21.738)"/><path d="M122.913 71.214c-5.848 3.315-9.799 9.598-9.799 16.797 0 10.648 8.645 19.293 19.294 19.293.741 0 1.473-.041 2.192-.123l9.598 29.542-30.476 17.52-30.781-94.734L113.4 41.936l9.513 29.278Z" style="fill:#ababff;stroke:#ababff;stroke-width:2.6px" transform="matrix(.76793 0 0 .76793 21.85 21.738)"/><circle cx="132.459" cy="87.909" r="10.651" style="fill:#fff;stroke:#ababff;stroke-width:2.6px" transform="matrix(.76793 0 0 .76793 21.812 21.816)"/><path d="M140.729 81.365a10.602 10.602 0 0 1 2.33 6.646c0 5.878-4.773 10.651-10.651 10.651a10.616 10.616 0 0 1-7.378-2.972c.912.203 1.858.31 2.83.31 7.161 0 12.975-5.814 12.975-12.975 0-.562-.036-1.117-.106-1.66Z" style="fill:#ababff;stroke:#ababff;stroke-width:2.6px" transform="matrix(.76793 0 0 .76793 21.85 21.738)"/></svg>

<?xml version="1.0" encoding="UTF-8" standalone="no"?>
<!DOCTYPE svg PUBLIC "-//W3C//DTD SVG 1.1//EN" "http://www.w3.org/Graphics/SVG/1.1/DTD/svg11.dtd">
<svg width="100%" height="100%" viewBox="0 0 192 192" version="1.1" xmlns="http://www.w3.org/2000/svg" xmlns:xlink="http://www.w3.org/1999/xlink" xml:space="preserve" xmlns:serif="http://www.serif.com/" style="fill-rule:evenodd;clip-rule:evenodd;stroke-linecap:round;stroke-linejoin:round;stroke-miterlimit:1.5;">
    <g id="Layer1">
        <g transform="matrix(1,0,0,1,8,8)">
            <path d="M164.5,21.5C164.5,15.981 160.019,11.5 154.5,11.5L21.5,11.5C15.981,11.5 11.5,15.981 11.5,21.5L11.5,154.5C11.5,160.019 15.981,164.5 21.5,164.5L154.5,164.5C160.019,164.5 164.5,160.019 164.5,154.5L164.5,21.5Z" style="fill:white;"/>
        </g>
        <g transform="matrix(0.767927,0,0,0.767927,21.8506,21.7376)">
            <path d="M50.626,117.743L100.585,90.281L80.26,77.248L71.106,72.749L50.626,117.743Z" style="fill:rgb(171,171,255);stroke:rgb(171,171,255);stroke-width:2.6px;"/>
            <g transform="matrix(0.838724,-0.544557,0.544557,0.838724,-5.24119,59.9263)">
                <path d="M104.885,40.888L69.496,38.972L74.188,47.67L109.304,49.518L104.885,40.888Z" style="fill:white;stroke:rgb(171,171,255);stroke-width:2.6px;"/>
            </g>
            <path d="M74.269,54.769L44.109,113.398L50.626,117.743L77.002,83.764L103.688,148.463L113.722,154.243L82.941,59.509L74.269,54.769" style="fill:white;stroke:rgb(171,171,255);stroke-width:2.6px;"/>
            <path d="M122.913,71.214C117.065,74.529 113.114,80.812 113.114,88.011C113.114,98.659 121.759,107.304 132.408,107.304C133.149,107.304 133.881,107.263 134.6,107.181L144.198,136.723L113.722,154.243L82.941,59.509L113.4,41.936L122.913,71.214Z" style="fill:rgb(171,171,255);stroke:rgb(171,171,255);stroke-width:2.6px;"/>
            <g transform="matrix(1,0,0,1,-0.05084,0.10168)">
                <circle cx="132.459" cy="87.909" r="10.651" style="fill:white;stroke:rgb(171,171,255);stroke-width:2.6px;"/>
            </g>
            <path d="M140.729,81.365C142.187,83.187 143.059,85.498 143.059,88.011C143.059,93.889 138.286,98.662 132.408,98.662C129.545,98.662 126.945,97.53 125.03,95.69C125.942,95.893 126.888,96 127.86,96C135.021,96 140.835,90.186 140.835,83.025C140.835,82.463 140.799,81.908 140.729,81.365Z" style="fill:rgb(171,171,255);stroke:rgb(171,171,255);stroke-width:2.6px;"/>
        </g>
    </g>
</svg>
